svgs/telenet_tv.svg

<svg xmlns="http://www.w3.org/2000/svg" viewBox="0 0 192 192"><path d="M29.267 144.759c-4.801-1.322-7.974-3.957-10.012-8.315-4.517-9.663-4.26-72.642.332-81.278 4.092-7.695 6.502-8.502 27.01-9.043 21.748-.575 30.622.816 34.08 5.342 5.272 6.9 5.429 8.19 5.429 44.585 0 28.83-.223 34.208-1.558 37.6-2.738 6.956-5.786 9.883-11.709 11.242-6.732 1.545-37.822 1.45-43.572-.133Zm41.307-13.492c2.385-1.14 3.799-3.025 5.123-6.826 1.598-4.59 1.828-8.162 1.828-28.391 0-36.259-.373-36.791-25.779-36.791-17.147 0-20.841 1.062-23.916 6.874-1.845 3.486-1.971 5.4-1.971 29.917 0 24.517.126 26.431 1.971 29.917 3.075 5.813 6.769 6.874 23.916 6.874 9.567 0 16.798-.605 18.828-1.574Zm-24.482-16.591c-5.59-2.548-11.418-8.332-10.165-10.088.248-.349 1.803.311 3.454 1.466 6.439 4.501 18.403 4.384 24.788-.243 2.582-1.872 2.778-1.856 2.486.2-.798 5.61-14.551 11.405-20.563 8.665Zm-6.359-26.101c-.653-.369-1.605-1.763-2.115-3.099-2.174-5.693 3.101-11.001 7.195-7.241 5.105 4.688.719 13.614-5.08 10.34Zm20.721-2.733c-4.152-.407-4.942-.895-4.942-3.054 0-2.235.674-2.569 5.177-2.569 4.895 0 5.178.179 5.178 3.298 0 1.814-.106 3.188-.236 3.054-.129-.134-2.459-.462-5.177-.729Zm56.458 45.901c-4.234-3.725-4.918-7.143-4.918-24.565V92.092h-3.295c-3.277 0-3.295-.031-3.295-5.937 0-5.69.115-5.936 2.769-5.936 3.331 0 4.09-1.475 4.738-9.208l.495-5.909 4.942-1.535 4.942-1.535v18.187h8.472v11.873h-8.472v14.371c0 15.234.598 17.141 4.79 15.276 1.363-.606 1.911.334 2.754 4.721.579 3.012.804 5.826.5 6.251-.304.426-2.979.993-5.946 1.259-4.229.38-6.058-.1-8.476-2.227Zm27.602-23.432c-3.522-13.637-6.606-25.536-6.854-26.443-.329-1.204 1.042-1.649 5.08-1.649h5.531l3.817 17.48c2.099 9.615 4.166 17.481 4.593 17.481.427 0 2.373-7.62 4.326-16.933 1.952-9.313 3.747-17.211 3.99-17.551.243-.34 2.754-.438 5.582-.218l5.14.4-6.764 25.726-6.765 25.727-5.636.386-5.636.387Z"/><path d="M150.592 132.064c.001-.579 1.547-4.615 3.434-8.968 4.162-9.6 14.439-38.933 14.445-41.228.003-1.035 1.365-1.649 3.659-1.649h3.654l-6.838 26.056-6.838 26.056-5.759.392c-3.168.216-5.758-.08-5.757-.659Z"/></svg>

<svg
    xmlns="http://www.w3.org/2000/svg"
    viewBox="0 0 192 192"
    id="vector">
    <g id="group">
        <path
            id="path_5"
            d="M 29.267 144.759 C 24.466 143.437 21.293 140.802 19.255 136.444 C 14.738 126.781 14.995 63.802 19.587 55.166 C 23.679 47.471 26.089 46.664 46.597 46.123 C 68.345 45.548 77.219 46.939 80.677 51.465 C 85.949 58.365 86.106 59.655 86.106 96.05 C 86.106 124.88 85.883 130.258 84.548 133.65 C 81.81 140.606 78.762 143.533 72.839 144.892 C 66.107 146.437 35.017 146.342 29.267 144.759 Z M 70.574 131.267 C 72.959 130.127 74.373 128.242 75.697 124.441 C 77.295 119.851 77.525 116.279 77.525 96.05 C 77.525 59.791 77.152 59.259 51.746 59.259 C 34.599 59.259 30.905 60.321 27.83 66.133 C 25.985 69.619 25.859 71.533 25.859 96.05 C 25.859 120.567 25.985 122.481 27.83 125.967 C 30.905 131.78 34.599 132.841 51.746 132.841 C 61.313 132.841 68.544 132.236 70.574 131.267 Z M 46.092 114.676 C 40.502 112.128 34.674 106.344 35.927 104.588 C 36.175 104.239 37.73 104.899 39.381 106.054 C 45.82 110.555 57.784 110.438 64.169 105.811 C 66.751 103.939 66.947 103.955 66.655 106.011 C 65.857 111.621 52.104 117.416 46.092 114.676 Z M 39.733 88.575 C 39.08 88.206 38.128 86.812 37.618 85.476 C 35.444 79.783 40.719 74.475 44.813 78.235 C 49.918 82.923 45.532 91.849 39.733 88.575 Z M 60.454 85.842 C 56.302 85.435 55.512 84.947 55.512 82.788 C 55.512 80.553 56.186 80.219 60.689 80.219 C 65.584 80.219 65.867 80.398 65.867 83.517 C 65.867 85.331 65.761 86.705 65.631 86.571 C 65.502 86.437 63.172 86.109 60.454 85.842 Z M 116.912 131.743 C 112.678 128.018 111.994 124.6 111.994 107.178 L 111.994 92.092 L 108.699 92.092 C 105.422 92.092 105.404 92.061 105.404 86.155 C 105.404 80.465 105.519 80.219 108.173 80.219 C 111.504 80.219 112.263 78.744 112.911 71.011 L 113.406 65.102 L 118.348 63.567 L 123.29 62.032 L 123.29 80.219 L 131.762 80.219 L 131.762 92.092 L 123.29 92.092 L 123.29 106.463 C 123.29 121.697 123.888 123.604 128.08 121.739 C 129.443 121.133 129.991 122.073 130.834 126.46 C 131.413 129.472 131.638 132.286 131.334 132.711 C 131.03 133.137 128.355 133.704 125.388 133.97 C 121.159 134.35 119.33 133.87 116.912 131.743 Z M 144.514 108.311 C 140.992 94.674 137.908 82.775 137.66 81.868 C 137.331 80.664 138.702 80.219 142.74 80.219 L 148.271 80.219 L 152.088 97.699 C 154.187 107.314 156.254 115.18 156.681 115.18 C 157.108 115.18 159.054 107.56 161.007 98.247 C 162.959 88.934 164.754 81.036 164.997 80.696 C 165.24 80.356 167.751 80.258 170.579 80.478 L 175.719 80.878 L 168.955 106.604 L 162.19 132.331 L 156.554 132.717 L 150.918 133.104 Z"
            fill="#000000"
            stroke-width="12"/>
        <path
            id="path_6"
            d="M 150.592 132.064 C 150.593 131.485 152.139 127.449 154.026 123.096 C 158.188 113.496 168.465 84.163 168.471 81.868 C 168.474 80.833 169.836 80.219 172.13 80.219 L 175.784 80.219 L 168.946 106.275 L 162.108 132.331 L 156.349 132.723 C 153.181 132.939 150.591 132.643 150.592 132.064 Z"
            fill="#000000"
            stroke-width="12"/>
    </g>
</svg>
